X:1
T:De ce brandon
T:Gentian
T:Source : Livre XII de 30 chansons nouvelles à 4 parties---Paris---P.Attaingnant---1543. Editor : André Vierendeels (14/06/18). Notes : Original clefs : C1, C3, C4, F4 Original note values have been halved Editorial accidentals above the staff Square brackets indicate ligatures 
T:#
T:De ce brandon
T:©
T:©
T:©
T:©
C:Gentian
Z:©
%%score [ 1 [ 2 3 ] 4 ]
L:1/8
Q:1/4=120
M:2/2
K:C
V:1 treble nm="Alto" snm="A"
V:2 treble-8 nm="Tenor 1" snm="T 1"
V:3 treble-8 nm="Tenor 2" snm="T 2"
V:4 bass nm="Bass" snm="B"
V:1
 F6 E2 | E4 D4 | z2 D2 F2 F2 | E2 E2 F2 A2- | A2 G2 A2 A2 | AGFE F4 | G4 F4 | E2 E2 D2 F2 | %8
w: De ce|bran- don,|qui tant de|cueurs en- flam- *|* * me, Ve-|nus _ _ _ cui-|doyt de-|re- chief m'op- pres-|
w: Et son|en- fant,|en- nuy- eux|sur ma da- *|* * me, d'ung|nou- * * * *|veau dard|ti- royt pour me-|
"^#" ED D4 C2 | D4 z4 :| F4 G2 F2 | E4 c4 | A2 c2 B2 A2- | A2 G2 A2 A2- | A2 G2 F4 | E4 E4 | %16
w: |ser,|mais ces- te|foy que|iay vou- lu lais-|* ser, en ce|_ beau lieu,|re- pos|
w: * * * bles-|ser,|||||||
 E2 E2 D2 C2 | D4 C4 | c4 A4- | A2 A2 F4 | z2 A2 c3 B | A2 G4 F2- | F2 E2 F4 | z2 F2 E2 D2 | %24
w: de ma fi- an-|* ce,|con- tre|_ le coup|m'a ser- vi|de def- fen-|* * se,|et re- cor-|
w: ||||||||
 C2 c2 A2 c2- | cB A2 G2 E2 | F4 E4 |: z4 F4- | F2 E2 E4 | D4 z2 D2 | F2 F2 EFGE | FG A4 G2 | %32
w: dant de mon bien|_ _ _ _ la|doul- ceur,|iay|_ com- bat-|tu par|si fer- me _ _ _|con- * fi- an-|
w: ||||||||
 A2 A2 AGFE | F4 G4 | F4 E2 E2 | DEFD ED D2- |"^#" D2 C2 !fermata!D4 :| %37
w: ce, qu'es- teint _ _ _|le feu|iay vain- cu|le- * * * * * *|* bles- seur.|
w: |||||
V:2
 d6 c2 | c4 A4 | A4 d2 d2 | G2 G2 ABcd | e4 c2 c2 | c4 d4 | e4 d4 | B2 c2 A4 | B2 G2 A4 | A4 z4 :| %10
w: De ce|bran- don,|qui tant de|cueurs en- flam- * * *|* me, Ve-|nus cui-|doyt de-|re- chief m'op-|pres- * *|ser,|
w: Et son|en- fant,|en- nuy- eux|sur ma da- * * *|* me, d'ung|nou- veau|dard ti-|royt pour me|bles- * *|ser,|
 d4 e2 d2 | B4 e4 | f2 e2 g2 f2 | e3 d c2 f2- | f2 e2 d4 | B2 B2 c3 B | A2 G2 F2 A2- | A2 G2 A4 | %18
w: mais ces- te|foy que|iay vou- lu lais-|ser _ _ en|_ ce beau|lieu, re- pos _|_ de ma fi-|* an- ce,|
w: ||||||||
 z2 c2 f2 f2 | e4 z2 d2 | d2 c2 A2 c2- | cd e2 c2 d2 | c4 A4 | c4 c2 A2 | ABcd e4 | f4 d2 c2 | %26
w: con- tre le|coup m'a|ser- vi de def-||fen- se,|et re- cor-|dant _ _ _ _|mon bien la|
w: ||||||||
 c2 B2 c4 |: z4 d4- | d2 c2 c4 | A4 A4 | d2 d2 G2 G2 | ABcd e4 | c2 c2 c4 | d4 e4 | d4 B2 c2 | %35
w: doul- * ceur,|iay|_ com- bat-|tu par|si fer- me con|fi- * * * an-|ce, qu'es- teint|le feu|iay vain- cu|
w: |||||||||
 A4 B2 G2 | A4 !fermata!A4 :| %37
w: le bles- *|* seur.|
w: ||
V:3
 A6 A2 | G4 F2 D2 | FEFG A2 B2 | c2 c2 dccB/A/ | B4 A4 | z2 A2 A2 F2 | c3 B A2 A2 | G4 FGAF | %8
w: De ce|bran- don, qui|tant _ _ _ _ de|cueurs en- flam- * * * *|* me|Ve- nus cui-|doyt de- re- chief|m'op- pres- * * *|
w: Et son|en- fant, en-|nuy- * * * * eux|sur ma da- * * * *|* me,|d'ung nou- veau|dard ti- royt pour|me bles- * * *|
 GFED E4 | D4 z4 :| A4 c2 A2 | GFED C2 c2 | c2 c2 d4 | B4 A2 c2- | c2 B2 A4 | G6 G2 | c3 B A2 A2 | %17
w: |ser,|mais ces- te|foy _ _ _ _ que|iay vou- lu|lais- ser, en|_ ce beau|lieu re-|pos de ma fi-|
w: |ser,||||||||
 D4 E4 | A3 B c2 d2- | d2 c2 d3 c/B/ | A4 z2 A2 | c3 B A2 _B2 | G4 F4 | A4 G2 F2 | E4 c4 | %25
w: an- ce,|con- * * tre|_ le coup _ _|_ m'a|ser- vi de def-|fen- se,|et re- cor-|dant de|
w: ||||||||
 A2 c2 B2 G2- | G2 F2 G4 |: z4 A4- | A2 A2 G4 | F2 D2 FEFG | A2 B2 cdec | dcBA B4 | A4 z2 A2 | %33
w: mon bien la doul|_ _ ceur,|iay|_ com- bat-|tu par si _ _ _|fer- me con- * * *|fi- * * * an-|ce, qu'es-|
w: ||||||||
 A2 F2 c3 B | A2 A2 G4 | FGAF GFED | E4 !fermata!D4 :| %37
w: teint le feu _|iay vain- cu|le _ _ _ _ _ _ _|bles- seur.|
w: ||||
V:4
 D,6 A,,2 | C,4 D,4 | D,4 D,2 D,2 | C,2 C,2 F,4 | E,4 A,,2 F,2 | F,4 D,4 | C,4 D,4 | E,2 C,2 D,4 | %8
w: De ce|bran- don,|qui tant de|cueurs en- flam-|* me, Ve-|nus cui-|doyt de-|re- chief m'op-|
w: Et son|en- fant,|en- nuy- eux|sur ma da-|* me, d'ung|nou- veau|dard ti-|royt pour me|
 G,,2 B,,2 A,,4 | D,4 z4 :| D,4 C,2 D,2 | E,4 z2 A,2 | F,2 A,2 G,2 D,2 | E,4 F,4- | F,2 C,2 D,4 | %15
w: pres- * *|ser,|mais ces- te|foy que|iay vou- lu lais-|ser, en|_ ce beau|
w: bles- * *|ser,||||||
 E,4 C,4 | C,2 C,2 D,2 A,,2 | B,,4 A,,4 | z2 A,2 F,2 D,2 | A,4 D,4 | F,6 F,2 | F,2 E,2 F,2 _B,,2 | %22
w: lieu, re-|pos de ma fi-|an- ce,|con- tre le|coup m'a|ser- vi|de def- fen- *|
w: |||||||
 C,4 F,,4 | F,,4 C,2 D,2 | A,,8 | z2 F,2 G,2 C,2 | D,2 D,2 C,4 |: z4 D,4- | D,2 A,,2 C,4 | %29
w: * se,|et re- cor-|dant|de mon bien|la doul- ceur,|iay|_ com- bat-|
w: |||||||
 D,4 D,4 | D,2 D,2 C,2 C,2 | F,4 E,4 | A,,2 F,2 F,4 | D,4 C,4 | D,4 E,2 C,2 | D,4 G,,2 B,,2 | %36
w: tu par|si fer- me con|fian- *|ce, qu'es- teint|le feu|iay vain- cu|le- bles- *|
w: |||||||
 A,,4 !fermata!D,4 :| %37
w: * seur.|
w: |

